X:28
T:Eagles on the Rocks
M:C|
L:1/8
C: Paul Gitlitz 1999
R:Reel
B:Giblitz Fancy
N:Seen from my Favorite 300 ft. high cliff. The Whips Favorite.
D:"To Have and To Hold" available @ www.glitchless.net
K:D
"D"D3E FGAB|AGFE D2C2|"Bm"B,3C DEFG|FEDC B,2A,2|!
"D"D3E FGAB|AGFE D2dD|"A"cDBD "F#m"AFAB|1"A7" AFEF "D"DB,A,B,:|2"A7"AFEF "D"D3F|!
|"D"f4d3B|ABdf e2d2|"G"g4e3c|"A"Aceg({fg}f2)e2|!
"F#m"a4f3d|"Bm"ABdf edef|"G"gdfd "Em"efed|"A7"cABc "D"defg|! 
"D"a4f3d|ABdf edeg|"G"b4g3e|"A"Aceba4|!
"F#m"a4f3d|"Bm"ABdf edef|"G"gdfd "Em"edcB|"A7"ABAG FGEF|]
